X:1
T:Title
%%score { ( 1 4 5 ) | ( 2 3 ) }
L:1/8
Q:1/4=100
M:4/4
K:Db
V:1 treble nm="Grand Piano"
V:4 treble 
V:5 treble 
V:2 bass 
V:3 bass 
V:1
 [Fd]4 [_Fc]2 [FB]2 | [FA]4 F4 | E2 F2 A2 [B,EG]2 | [DF]4 [CE]4 | [Fd]4 [FA]2 =A2 | B4 d4 | %6
w: J.~Lincoln~Hall * *||||||
 A2 F2 [DF]2 [CE]2 | D6 z2 | [Fd]4 [Ec]2 [EB]2 | [FA]4 F4 | E2 F2 A2 [B,EG]2 | [DF]4 [CE]4 | %12
w: ||||||
 [Fd]4 [FA]2 =A2 | B4 d4 | A2 F2 [DF]2 [CE]2 | D6 A2 | A3 A BBcB | A6 A2 | e3 =d e2 A2 | %19
w: |||||||
[M:9/8] B3- B A2- AF>G |[M:4/4] A2 d2 [Af]2 [Ae]>[Ad] | z2 [Bd]4 z2 | [DFA]3 [DGB] [DFA][DF]F,F | %23
w: ||||
 [DE]6[K:treble] z2 | z2 d2 z4 | %25
w: ||
[M:39/32] z/4 z/4 z/4 z/4 z/4 z/4 z/ d/4-d/4-d/4-d/4-d/4-d/4-d/4-d/4-d/4-d/4-d/4-d/4-d/4-d/4-d/4-d/4-d/-<d/d/4-d/4-d/4-d/4-d/4-d/4-d/-<d/ z/4 | %26
w: |
[M:4/4] (9:8:8AFD3/2E F/-F3/2[DE-]3/2[CE][Q:1/4=97][Q:1/4=94][Q:1/4=91][Q:1/4=88][Q:1/4=84][Q:1/4=81][Q:1/4=78] | %27
w: |
 D6- D/4 z/4 z/ z |] %28
w: |
V:2
 [D,A,]4 [D,=G,]2 [D,G,]2 | [D,A,]4 [F,A,D]4 | [G,B,D]2 [F,B,=D]2 [E,B,E]2 G,,2 | %3
 [A,,A,]4 [A,,A,]4 | [D,A,]4 [D,D]2 [F,CE]2 | [G,B,D]4 [G,=A,D]4 | %6
 [F,A,D]2 [D,A,D]2 [B,,=G,]2 [A,,_G,]2 | [D,F,]6 z2 | [D,A,]4 [D,=G,]2 [D,G,]2 | [D,A,]4 [F,A,D]4 | %10
 [G,B,D]2 [F,B,=D]2 [E,B,E]2 G,,2 | [A,,A,]4 [A,,A,]4 | [D,A,]4 [D,D]2 [F,CE]2 | %13
 [G,B,D]4 [G,=A,D]4 | [F,A,D]2 [D,A,D]2 [B,,=G,]2 [A,,_G,]2 | [D,F,]6 A,2 | %16
 [A,CG]3 [A,CG] [A,DG][A,DG][A,EG][A,DG] | [A,CG]6 [A,CG]2 | [A,CG]3 [A,_CF] [A,=CG]2 [A,CG]2 | %19
[M:9/8] [A,DG]3- [A,DG] [A,CG]2- [A,CG]D>[CE] |[M:4/4][K:bass] F4 z4 | [G,D]2 [G,B,]G, z D G,>G, | %22
 D,F,A,G, z A, z A, | E,2 E,E, A,,2 [F,D]>[K:treble][A,E] | %24
 [DF]2 .[A,FA]2[K:bass] [D,D]2 [F,D]>[F,D] | %25
[M:39/32] [G,D]/4-[G,D]/4-[G,D]/4-[G,D]/4-[G,D]/-<[G,D]/[G,D]/-<[G,D]/G,/-<G,/=G,/4-G,/4-G,/4-G,/4-G,/4-G,/4-G,/4-G,/4-G,/-<G,/[G,E]/4-[G,E]/4-[G,E]/4-[G,E]/4-[G,E]/-<[G,E]/[K:treble][G,DE]3/4 | %26
[M:4/4] (9:8:8[A,DF][K:bass][B,D][=G,B,]3/2[_G,=A,D] [_A,D]/-[A,D]3/2[A,,G,]/- [A,,G,]2 | %27
 [D,F,A,]6- [D,F,A,]/4 z/4 z/ z |] %28
V:3
 x8 | x8 | x8 | x8 | x8 | x8 | x8 | x8 | x8 | x8 | x8 | x8 | x8 | x8 | x8 | x8 | x8 | x8 | x8 | %19
[M:9/8] x9 |[M:4/4][K:bass] D2- [A,D-][F,D-] [D,D]2 [E,C]>[F,D] | z4 G,2 z2 | z4 D,2 D,2 | %23
 x15/2[K:treble] x/ | x4[K:bass] x4 | %25
[M:39/32] z/4 z/4 z/4 z/4 z/4 z/4 z/4 z/4 z/4 z/4 z/4 z/4 z/4 z/4 z/4 z/4 z/4 z/4 z/4 z/4 z/4 z/4 z/4 z/4 z/4 z/4 z/ B,/4-B,/4-B,/4-B,/4-B,/4-B,/4-B,/-<B,/[K:treble] z/4 | %26
[M:4/4] x57/64[K:bass] x7 | x8 |] %28
V:4
 x8 | x8 | x8 | x8 | x8 | x8 | x8 | x8 | x8 | x8 | x8 | x8 | x8 | x8 | x8 | x8 | x8 | x8 | x8 | %19
[M:9/8] x9 |[M:4/4] x8 | [GB]2 z D .E2 [DAc]>[DGB] | z4 z2 D2 | =G,2 G,G, z C[K:treble] F>G | %24
 A2 z F, [_cf]2 [ce]>[cd] | %25
[M:39/32] B/4-B/4-B/4-B/4-B/4-B/4-B/4-B/4-B/4-B/4-B/4-B/4-B/4-B/4-B/4-B/4-B/4-B/4-B/4-B/4-B/4-B/4-B/-<B/ z/4 z/4 z/4 z/4 z/4 z/4 z/4 z/4 z/4 z/4 z/4 z/ | %26
[M:4/4] x8 | x8 |] %28
V:5
 x8 | x8 | x8 | x8 | x8 | x8 | x8 | x8 | x8 | x8 | x8 | x8 | x8 | x8 | x8 | x8 | x8 | x8 | x8 | %19
[M:9/8] x9 |[M:4/4] x8 | x8 | x8 | z4 _G,2[K:treble] z2 | x8 | %25
[M:39/32] z/4 z/4 z/4 z/4 z/4 z/4 z/4 z/4 z/4 z/4 z/ E/-<E/_F/4-F/4-F/4-F/4-F/4-F/4-F/4-F/4-F/-<F/ z/4 z/4 z/4 z/4 z/4 z/4 z/ B3/4 | %26
[M:4/4] x8 | x8 |] %28

